public/assets/svgs/addons/ember-meta.svg

<svg height="52" viewBox="0 0 60 52" width="60" xmlns="http://www.w3.org/2000/svg"><g fill="none"><path d="m59 49.9999997h-8v-4h1c.5516009-.0016474.9983526-.448399 1-1v-34.99999976h4l2-9.99999994h-7c-2.1219125-.00058908-4.157086.84207647-5.6575048 2.34249521-1.5004187 1.50041873-2.3430843 3.5355923-2.3424952 5.65750474v5.99999995h-12v-3c-.0026194-3.31262285-2.6873771-5.99738055-6-5.99999993h-2v-.99999999h-12v.99999999h-11v3.99999998h3v4.99999995h-2c-.55160093.0016474-.9983526.4483991-1 1v29.9999998c.0016474.551601.44839907.9983526 1 1h1v4h-2c-.55228475 0-1 .4477153-1 1s.44771525 1 1 1h58c.5522847 0 1-.4477153 1-1s-.4477153-1-1-1zm-53-40.9999997h6v1h12v4h-18z" fill="#547580"/><path d="m3 46h48v5h-48z" fill="#bdc3c7"/><rect fill="#bdc3c7" height="20" rx="1" width="20" x="8" y="20"/><g fill="#7f8c8d"><path d="m8 22v4h-2c-.55160093-.0016474-.9983526-.4483991-1-1v-2c.0016474-.5516009.44839907-.9983526 1-1z"/><path d="m8 34v4h-2c-.55160093-.0016474-.9983526-.4483991-1-1v-2c.0016474-.5516009.44839907-.9983526 1-1z"/><path d="m16 34h-4c-.5522847 0-1-.4477153-1-1s.4477153-1 1-1h4c.5522847 0 1 .4477153 1 1s-.4477153 1-1 1z"/><path d="m16 37h-4c-.5522847 0-1-.4477153-1-1s.4477153-1 1-1h4c.5522847 0 1 .4477153 1 1s-.4477153 1-1 1z"/><path d="m24 32c-.5522847 0-1-.4477153-1-1v-2c0-.5522847.4477153-1 1-1s1 .4477153 1 1v2c0 .5522847-.4477153 1-1 1z"/></g><rect fill="#bdc3c7" height="10" rx="1" width="17" x="32" y="18"/><rect fill="#bdc3c7" height="10" rx="1" width="17" x="32" y="32"/><path d="m42 37h-3c-.5522847 0-1-.4477153-1-1s.4477153-1 1-1h3c.5522847 0 1 .4477153 1 1s-.4477153 1-1 1z" fill="#7f8c8d"/><path d="m12 4h12v6h-12z" fill="#547580"/><path d="m32 11v3h-8v-9h2c3.3126229.00261938 5.9973806 2.68737709 6 6z" fill="#bdc3c7"/><path d="m5 15c-.55228475 0-1-.4477153-1-1v-5c0-.55228475.44771525-1 1-1s1 .44771525 1 1v5c0 .5522847-.44771525 1-1 1z" fill="#7f8c8d"/><path d="m52.9999997-.00000031v10h-9l.0000003-1.99999994c-.0005891-2.12191238.8420764-4.15708591 2.3424951-5.6575046 1.5004187-1.5004187 3.5355922-2.34308423 5.6575046-2.34249515z" fill="#547580"/><path d="m59 0-2 10h-4v-10z" fill="#bdc3c7"/><path d="m44 10h9v4h-9z" fill="#bdc3c7"/><path d="m59 52h-58c-.55228475 0-1-.4477153-1-1s.44771525-1 1-1h58c.5522847 0 1 .4477153 1 1s-.4477153 1-1 1z" fill="#7f8c8d"/><path d="m1 5h11v4h-11z" fill="#bdc3c7"/></g></svg>

<?xml version="1.0" encoding="UTF-8"?>
<svg width="60px" height="52px" viewBox="0 0 60 52" version="1.1" xmlns="http://www.w3.org/2000/svg" xmlns:xlink="http://www.w3.org/1999/xlink">
    <!-- Generator: Sketch 49.3 (51167) - http://www.bohemiancoding.com/sketch -->
    <title>011 - Site Generator</title>
    <desc>Created with Sketch.</desc>
    <defs></defs>
    <g id="Page-1" stroke="none" stroke-width="1" fill="none" fill-rule="evenodd">
        <g id="011---Site-Generator" fill-rule="nonzero">
            <path d="M59,49.9999997 L51,49.9999997 L51,45.9999997 L52,45.9999997 C52.5516009,45.9983523 52.9983526,45.5516007 53,44.9999997 L53,9.99999994 L57,9.99999994 L59,-8.55801062e-16 L52,-8.55801062e-16 C49.8780875,-0.000589075939 47.842914,0.842076472 46.3424952,2.34249521 C44.8420765,3.84291394 43.9994109,5.87808751 44,7.99999995 L44,13.9999999 L32,13.9999999 L32,10.9999999 C31.9973806,7.68737705 29.3126229,5.00261935 26,4.99999997 L24,4.99999997 L24,3.99999998 L12,3.99999998 L12,4.99999997 L1,4.99999997 L1,8.99999995 L4,8.99999995 L4,13.9999999 L2,13.9999999 C1.44839907,14.0016473 1.0016474,14.448399 1,14.9999999 L1,44.9999997 C1.0016474,45.5516007 1.44839907,45.9983523 2,45.9999997 L3,45.9999997 L3,49.9999997 L1,49.9999997 C0.44771525,49.9999997 6.76353751e-17,50.447715 0,50.9999997 C-6.76353751e-17,51.5522844 0.44771525,51.9999997 1,51.9999997 L59,51.9999997 C59.5522847,51.9999997 60,51.5522844 60,50.9999997 C60,50.447715 59.5522847,49.9999997 59,49.9999997 Z M6,9 L12,9 L12,10 L24,10 L24,14 L6,14 L6,9 Z" id="Shape" fill="#547580"></path>
            <rect id="Rectangle-path" fill="#BDC3C7" x="3" y="46" width="48" height="5"></rect>
            <rect id="Rectangle-path" fill="#BDC3C7" x="8" y="20" width="20" height="20" rx="1"></rect>
            <path d="M8,22 L8,26 L6,26 C5.44839907,25.9983526 5.0016474,25.5516009 5,25 L5,23 C5.0016474,22.4483991 5.44839907,22.0016474 6,22 L8,22 Z" id="Shape" fill="#7F8C8D"></path>
            <path d="M8,34 L8,38 L6,38 C5.44839907,37.9983526 5.0016474,37.5516009 5,37 L5,35 C5.0016474,34.4483991 5.44839907,34.0016474 6,34 L8,34 Z" id="Shape" fill="#7F8C8D"></path>
            <path d="M16,34 L12,34 C11.4477153,34 11,33.5522847 11,33 C11,32.4477153 11.4477153,32 12,32 L16,32 C16.5522847,32 17,32.4477153 17,33 C17,33.5522847 16.5522847,34 16,34 Z" id="Shape" fill="#7F8C8D"></path>
            <path d="M16,37 L12,37 C11.4477153,37 11,36.5522847 11,36 C11,35.4477153 11.4477153,35 12,35 L16,35 C16.5522847,35 17,35.4477153 17,36 C17,36.5522847 16.5522847,37 16,37 Z" id="Shape" fill="#7F8C8D"></path>
            <path d="M24,32 C23.4477153,32 23,31.5522847 23,31 L23,29 C23,28.4477153 23.4477153,28 24,28 C24.5522847,28 25,28.4477153 25,29 L25,31 C25,31.5522847 24.5522847,32 24,32 Z" id="Shape" fill="#7F8C8D"></path>
            <rect id="Rectangle-path" fill="#BDC3C7" x="32" y="18" width="17" height="10" rx="1"></rect>
            <rect id="Rectangle-path" fill="#BDC3C7" x="32" y="32" width="17" height="10" rx="1"></rect>
            <path d="M42,37 L39,37 C38.4477153,37 38,36.5522847 38,36 C38,35.4477153 38.4477153,35 39,35 L42,35 C42.5522847,35 43,35.4477153 43,36 C43,36.5522847 42.5522847,37 42,37 Z" id="Shape" fill="#7F8C8D"></path>
            <rect id="Rectangle-path" fill="#547580" x="12" y="4" width="12" height="6"></rect>
            <path d="M32,11 L32,14 L24,14 L24,5 L26,5 C29.3126229,5.00261938 31.9973806,7.68737709 32,11 Z" id="Shape" fill="#BDC3C7"></path>
            <path d="M5,15 C4.44771525,15 4,14.5522847 4,14 L4,9 C4,8.44771525 4.44771525,8 5,8 C5.55228475,8 6,8.44771525 6,9 L6,14 C6,14.5522847 5.55228475,15 5,15 Z" id="Shape" fill="#7F8C8D"></path>
            <path d="M52.9999997,-3.08642853e-07 L52.9999997,9.99999969 L43.9999997,9.99999969 L44,7.99999975 C43.9994109,5.87808737 44.8420764,3.84291384 46.3424951,2.34249515 C47.8429138,0.842076451 49.8780873,-0.000589075924 51.9999997,-9.08195158e-15 L52.9999997,-3.08642853e-07 Z" id="Shape" fill="#547580"></path>
            <polygon id="Shape" fill="#BDC3C7" points="59 0 57 10 53 10 53 0"></polygon>
            <rect id="Rectangle-path" fill="#BDC3C7" x="44" y="10" width="9" height="4"></rect>
            <path d="M59,52 L1,52 C0.44771525,52 6.76353751e-17,51.5522847 0,51 C-6.76353751e-17,50.4477153 0.44771525,50 1,50 L59,50 C59.5522847,50 60,50.4477153 60,51 C60,51.5522847 59.5522847,52 59,52 Z" id="Shape" fill="#7F8C8D"></path>
            <rect id="Rectangle-path" fill="#BDC3C7" x="1" y="5" width="11" height="4"></rect>
        </g>
    </g>
</svg>
